src/Pure-Light/16/panel/kdeconnect-symbolic.svg

<?xml version="1.0" encoding="UTF-8" standalone="no"?>
<!-- Created with Inkscape (http://www.inkscape.org/) -->

<svg
   width="16"
   height="16"
   viewBox="0 0 16 16"
   version="1.1"
   id="svg5"
   sodipodi:docname="kdeconnect-symbolic.svg"
   inkscape:version="1.2.1 (9c6d41e410, 2022-07-14)"
   xmlns:inkscape="http://www.inkscape.org/namespaces/inkscape"
   xmlns:sodipodi="http://sodipodi.sourceforge.net/DTD/sodipodi-0.dtd"
   xmlns="http://www.w3.org/2000/svg"
   xmlns:svg="http://www.w3.org/2000/svg">
  <sodipodi:namedview
     id="namedview7"
     pagecolor="#ffffff"
     bordercolor="#666666"
     borderopacity="1.0"
     inkscape:showpageshadow="2"
     inkscape:pageopacity="0.0"
     inkscape:pagecheckerboard="0"
     inkscape:deskcolor="#d1d1d1"
     inkscape:document-units="px"
     showgrid="false"
     inkscape:zoom="49.375"
     inkscape:cx="8"
     inkscape:cy="8"
     inkscape:window-width="1920"
     inkscape:window-height="1011"
     inkscape:window-x="0"
     inkscape:window-y="0"
     inkscape:window-maximized="1"
     inkscape:current-layer="svg5" />
  <defs
     id="defs2" >
     <style
        id="current-color-scheme"
        type="text/css">
        .ColorScheme-Text { color:#363636; }
     </style>
  </defs>
  <path
     id="path1017"
     style="fill:currentColor;fill-opacity:1"
     class="ColorScheme-Text"
     d="M 5 0 C 3.8920022 0 3 0.89200221 3 2 L 3 14 C 3 15.107998 3.8920022 16 5 16 L 11 16 C 12.107998 16 13 15.107998 13 14 L 13 2 C 13 0.89200221 12.107998 0 11 0 L 5 0 z M 5 1 L 11 1 C 11.553998 1 12 1.4460012 12 2 L 12 14 C 12 14.553998 11.553998 15 11 15 L 5 15 C 4.4460012 15 4 14.553998 4 14 L 4 2 C 4 1.4460012 4.4460012 1 5 1 z M 6.5 13 C 6.2230003 13 6 13.223 6 13.5 C 6 13.777 6.2230003 14 6.5 14 L 9.5 14 C 9.7769997 14 10 13.777 10 13.5 C 10 13.223 9.7769997 13 9.5 13 L 6.5 13 z " />
</svg>

<?xml version="1.0" encoding="UTF-8" standalone="no"?>
<!-- Created with Inkscape (http://www.inkscape.org/) -->

<svg
   width="16"
   height="16"
   viewBox="0 0 16 16"
   version="1.1"
   id="svg5"
   sodipodi:docname="kdeconnect-symbolic.svg"
   inkscape:version="1.3.2 (091e20ef0f, 2023-11-25, custom)"
   xmlns:inkscape="http://www.inkscape.org/namespaces/inkscape"
   xmlns:sodipodi="http://sodipodi.sourceforge.net/DTD/sodipodi-0.dtd"
   xmlns="http://www.w3.org/2000/svg"
   xmlns:svg="http://www.w3.org/2000/svg">
  <sodipodi:namedview
     id="namedview7"
     pagecolor="#ffffff"
     bordercolor="#666666"
     borderopacity="1.0"
     inkscape:showpageshadow="2"
     inkscape:pageopacity="0.0"
     inkscape:pagecheckerboard="0"
     inkscape:deskcolor="#d1d1d1"
     inkscape:document-units="px"
     showgrid="false"
     inkscape:zoom="50.25"
     inkscape:cx="8"
     inkscape:cy="8"
     inkscape:window-width="1920"
     inkscape:window-height="1008"
     inkscape:window-x="0"
     inkscape:window-y="0"
     inkscape:window-maximized="1"
     inkscape:current-layer="svg5" />
  <defs
     id="defs2">
    <style
       id="current-color-scheme"
       type="text/css">
        .ColorScheme-Text { color:#363636; }
     </style>
  </defs>
  <path
     id="path1017"
     style="fill:currentColor;fill-opacity:1"
     class="ColorScheme-Text"
     d="M 5,0 C 3.8920022,0 3,0.8920022 3,2 v 12 c 0,1.107998 0.8920022,2 2,2 h 6 c 1.107998,0 2,-0.892002 2,-2 V 2 C 13,0.8920022 12.107998,0 11,0 Z m 0,1 h 6 c 0.553998,0 1,0.4460012 1,1 v 12 c 0,0.553998 -0.446002,1 -1,1 H 5 C 4.4460012,15 4,14.553998 4,14 V 2 C 4,1.4460012 4.4460012,1 5,1 Z M 6.5,13 C 6.223,13 6,13.223 6,13.5 6,13.777 6.223,14 6.5,14 h 3 C 9.777,14 10,13.777 10,13.5 10,13.223 9.777,13 9.5,13 Z" />
</svg>
